X: 6
T: Garech's Wedding
Z: ceolachan
S: https://thesession.org/tunes/2620#setting15874
R: slip jig
M: 9/8
L: 1/8
K: Emin
D |: E3 e2 B G2 B | A3 A2 G A2 B |
E3 G2 B e2 f |1 gfe fed B2 e :|2 g>fe fed e2 f ||
|: g2 B B^AB g2 e | f2 A A^GA f2 d |
[2 g2 e f2 d ee/f/g | B>cB AGF E2 ||
E3 G2 B e2 f |1 gfe fed B2 e :|2 gfe fed e2 f ||
[ gfe fed efg | BcB AGF E2 ||
|: ~E3 ~e2 B ~G2 B | ~A3 ~A2 G ~A2 B | ~
